configs/marketplace-logos/angle.svg

<svg xmlns="http://www.w3.org/2000/svg" fill="none" viewBox="0 0 1001 1001">
  <path fill="#FAF1E7" d="M.934.896h1000v1000H.934z"/>
  <g clip-path="url(#angle_svg__a)">
    <path fill="#FAF1E7" stroke="#1F2333" stroke-linejoin="round" stroke-width="5" d="m332.389 516.599 167.869-169.375 167.87 169.375-83.936 84.689-83.935-84.688-83.934 84.687-83.934-84.688Z"/>
    <path fill="#1F2333" stroke="#1F2333" stroke-linejoin="round" stroke-width="5" d="m500.258 516.597-83.935 84.699-16.786-41.94L500.258 457.73v58.867Z"/>
    <path fill="#FAF1E7" stroke="#1F2333" stroke-linejoin="round" stroke-width="5" d="m332.377 516.58 83.944 84.69-16.786-41.914L298.813 457.73l33.564 58.85Zm167.879.017 83.936 84.699 16.786-41.94L500.256 457.73v58.867Z"/>
    <path fill="#1F2333" stroke="#1F2333" stroke-linejoin="round" stroke-width="5" d="m668.137 516.58-83.944 84.69 16.786-41.914L701.701 457.73l-33.564 58.85Z"/>
    <path fill="url(#angle_svg__b)" stroke="#1F2333" stroke-linejoin="round" stroke-width="5" d="m298.815 457.722 201.443-203.251 201.444 203.251-100.723 101.626-100.722-101.625-100.72 101.624-100.722-101.625Z"/>
    <path fill="#1F2333" d="M381.112 753h10.563v-42.265h31.702V753h10.562v-52.834h-52.827V753Zm105.66 0h52.827v-31.702h-10.562v21.132h-31.702v-31.695h42.264v-10.569h-52.827V753Zm116.225-52.834h-10.562V753h52.834v-10.57h-42.272v-42.264Zm147.932 0h-52.834V753h52.834v-10.57h-31.68l31.68-31.68v-10.584Zm-42.113 37.778v-27.209h27.18l-27.18 27.209ZM295.366 700.1l-.007-.007-.979.987-44.446 44.446 7.473 7.473 37.973-37.973 38.039 37.901 7.459-7.488-45.447-45.281-.065-.058Z"/>
  </g>
  <defs>
    <linearGradient id="angle_svg__b" x1="669.725" x2="418.039" y1="308.03" y2="573.207" gradientUnits="userSpaceOnUse">
      <stop stop-color="#F4837D"/>
      <stop offset="1" stop-color="#FDCEAA"/>
    </linearGradient>
    <clipPath id="angle_svg__a">
      <path fill="#fff" d="M249.934 249.896h502v502h-502z"/>
    </clipPath>
  </defs>
</svg>

<svg width="1001" height="1001" viewBox="0 0 1001 1001" fill="none" xmlns="http://www.w3.org/2000/svg">
<rect width="1000" height="1000" transform="translate(0.933838 0.895508)" fill="#FAF1E7"/>
<g clip-path="url(#clip0_1417_29559)">
<path d="M332.389 516.599L500.258 347.224L668.128 516.599L584.192 601.288L500.257 516.6L416.323 601.287L332.389 516.599Z" fill="#FAF1E7" stroke="#1F2333" stroke-width="5" stroke-linejoin="round"/>
<path d="M500.258 516.597L416.323 601.296L399.537 559.356L500.258 457.73V516.597Z" fill="#1F2333" stroke="#1F2333" stroke-width="5" stroke-linejoin="round"/>
<path d="M332.377 516.58L416.321 601.27L399.535 559.356L298.813 457.73L332.377 516.58Z" fill="#FAF1E7" stroke="#1F2333" stroke-width="5" stroke-linejoin="round"/>
<path d="M500.256 516.597L584.192 601.296L600.978 559.356L500.256 457.73L500.256 516.597Z" fill="#FAF1E7" stroke="#1F2333" stroke-width="5" stroke-linejoin="round"/>
<path d="M668.137 516.58L584.193 601.27L600.979 559.356L701.701 457.73L668.137 516.58Z" fill="#1F2333" stroke="#1F2333" stroke-width="5" stroke-linejoin="round"/>
<path d="M298.815 457.722L500.258 254.471L701.702 457.722L600.979 559.348L500.257 457.723L399.537 559.347L298.815 457.722Z" fill="url(#paint0_linear_1417_29559)" stroke="#1F2333" stroke-width="5" stroke-linejoin="round"/>
<path d="M381.112 753H391.675V710.735H423.377V753H433.939V700.166H381.112V753Z" fill="#1F2333"/>
<path d="M486.772 753H539.599V721.298H529.037V742.43H497.335V710.735H539.599V700.166H486.772V753Z" fill="#1F2333"/>
<path d="M602.997 700.166H592.435V753H645.269V742.43H602.997V700.166Z" fill="#1F2333"/>
<path d="M750.929 700.166H698.095V753H750.929V742.43H719.249L750.929 710.75V700.166ZM708.816 737.944V710.735H735.996L708.816 737.944Z" fill="#1F2333"/>
<path d="M295.366 700.1L295.359 700.093L294.38 701.08L249.934 745.526L257.407 752.999L295.38 715.026L333.419 752.927L340.878 745.439L295.431 700.158L295.366 700.1Z" fill="#1F2333"/>
</g>
<defs>
<linearGradient id="paint0_linear_1417_29559" x1="669.725" y1="308.03" x2="418.039" y2="573.207" gradientUnits="userSpaceOnUse">
<stop stop-color="#F4837D"/>
<stop offset="1" stop-color="#FDCEAA"/>
</linearGradient>
<clipPath id="clip0_1417_29559">
<rect width="502" height="502" fill="white" transform="translate(249.934 249.896)"/>
</clipPath>
</defs>
</svg>
